Papirus/symbolic/22x22/status/kalarm-disabled-symbolic.svg

<svg xmlns="http://www.w3.org/2000/svg" width="22" height="22" version="1.1">
 <defs>
  <style id="current-color-scheme" type="text/css">
   .ColorScheme-Text { color:#dfdfdf; } .ColorScheme-Highlight { color:#4285f4; } .ColorScheme-NeutralText { color:#ff9800; } .ColorScheme-PositiveText { color:#4caf50; } .ColorScheme-NegativeText { color:#f44336; }
  </style>
 </defs>
 <path style="fill:currentColor;opacity:0.35" class="ColorScheme-Text" d="M 5,2 C 3,2 2,3.343146 2,5 2.000629,5.799718 2.3205349,6.5660843 2.8886719,7.1289062 3.7771019,5.2768062 5.2769063,3.7772719 7.1289062,2.8886719 6.5680232,2.3162309 5.8014236,2 5,2 Z m 12,0 c -0.799718,0 -1.566084,0.3205349 -2.128906,0.8886719 1.852,0.8886 3.351834,2.3881344 4.240234,4.2402343 C 19.672315,6.5732553 19.991624,5.8188439 20,5.0292969 20,3.3724429 18.560055,2 17,2 Z m -6,2 c -3.854149,0 -7,3.1458505 -7,7 0,3.854148 3.145851,7 7,7 3.854149,0 7,-3.145852 7,-7 0,-3.8541495 -3.145851,-7 -7,-7 z m 0,2 c 2.773268,0 5,2.2267315 5,5 0,2.773268 -2.226732,5 -5,5 C 8.226732,16 6,13.773268 6,11 6,8.2267315 8.226732,6 11,6 Z m 5.701172,10.603516 c -0.7072,0.717164 -1.543466,1.294333 -2.464844,1.701172 C 14.511169,18.737054 14.987674,18.999242 15.5,19 16.328427,19 17,18.328427 17,17.5 16.999579,17.176781 16.894767,16.862344 16.701172,16.603516 Z m -11.404297,0.0039 C 5.104772,16.865429 5.000695,17.178337 5,17.5 5,18.328427 5.671573,19 6.5,19 7.010493,18.999855 7.4858667,18.740091 7.7617188,18.310547 6.8401827,17.903126 6.003906,17.325286 5.296875,16.607422 Z"/>
 <path style="fill:currentColor" class="ColorScheme-Text" d="m 8,9 v 4 h 2 V 9 Z m 4,0 v 4 h 2 V 9 Z"/>
</svg>

<svg xmlns="http://www.w3.org/2000/svg" width="22" height="22" version="1.1">
 <defs>
  <style id="current-color-scheme" type="text/css">
   .ColorScheme-Text { color:#dfdfdf; } .ColorScheme-Highlight { color:#4285f4; } .ColorScheme-NeutralText { color:#ff9800; } .ColorScheme-PositiveText { color:#4caf50; } .ColorScheme-NegativeText { color:#f44336; }
  </style>
 </defs>
 <path style="fill:currentColor" class="ColorScheme-Text" d="M 8 9 L 8 13 L 10 13 L 10 9 L 8 9 z M 12 9 L 12 13 L 14 13 L 14 9 L 12 9 z"/>
 <path style="fill:currentColor;opacity:0.35" class="ColorScheme-Text" d="m 5,1.9882815 v 0.011719 c -1.656854,0 -3,1.343146 -3,3 6.29e-4,0.799718 0.320535,1.566084 0.888672,2.128906 0.88843,-1.8521 2.388234,-3.351634 4.240234,-4.240234 C 6.568023,2.3162315 5.801415,1.9920045 5,1.9882815 Z m 12,0.011719 c -0.799718,6.29e-4 -1.566084,0.320535 -2.128906,0.888672 1.852,0.8886 3.351834,2.388134 4.240234,4.240234 0.560987,-0.555651 0.880296,-1.310062 0.888672,-2.099609 0,-1.656854 -1.343146,-3 -3,-3 z m -6,2 c -3.854149,0 -7,3.145851 -7,7.0000005 C 4,14.854149 7.145851,18 11,18 c 3.854149,0 7,-3.145851 7,-6.999999 0,-3.8541495 -3.145851,-7.0000005 -7,-7.0000005 z m 0,2 c 2.773268,0 5,2.226732 5,5.0000005 C 16,13.773269 13.773268,16 11,16 8.226732,16 6,13.773269 6,11.000001 6,8.2267325 8.226732,6.0000005 11,6.0000005 Z m 5.701172,10.6035155 c -0.7072,0.717164 -1.543466,1.294333 -2.464844,1.701172 C 14.511169,18.737054 14.987674,18.999242 15.5,19 16.328427,19 17,18.328427 17,17.5 16.999579,17.176781 16.894767,16.862344 16.701172,16.603516 Z m -11.404297,0.0039 C 5.104772,16.865423 5.000695,17.178337 5,17.5 5,18.328427 5.671573,19 6.5,19 7.010493,18.999855 7.485867,18.740091 7.761719,18.310547 6.840183,17.903126 6.003906,17.325286 5.296875,16.607422 Z"/>
</svg>
